src/actions/16/tab-detach.svg

<svg viewBox="0 0 16 16" xmlns="http://www.w3.org/2000/svg">
 <defs>
  <style type="text/css">.ColorScheme-Text {
        color:#2e3440;
      }</style>
 </defs>
 <path class="ColorScheme-Text" d="m2 2v12h12v-9h-7v-3h-1-4zm6 0v2h5v-2h-5zm-5 1h3v2 1h7v7h-10v-10z" fill="currentColor"/>
</svg>

<svg xmlns="http://www.w3.org/2000/svg" viewBox="0 0 16 16">
  <defs id="defs3051">
    <style type="text/css" id="current-color-scheme">
      .ColorScheme-Text {
        color:#2e3440;
      }
      </style>
  </defs>
 <path style="fill:currentColor;fill-opacity:1;stroke:none" 
     d="M 2 2 L 2 14 L 14 14 L 14 5 L 7 5 L 7 2 L 6 2 L 2 2 z M 8 2 L 8 4 L 13 4 L 13 2 L 8 2 z M 3 3 L 6 3 L 6 5 L 6 6 L 13 6 L 13 13 L 3 13 L 3 3 z "
     class="ColorScheme-Text"
     />
</svg>
